X:13
T:Declaration Schottische
M:4/4
L:1/8
C:Taz Tarry
S:Copyright B.Tarry, 15th. February 1997
R:Schottische
Q:1/4=120
K:D
D>FAF GB2B|A>cef gfed|D>FAF GB2B|A>cec dcBA|
D>FAF GB2B|A>cef gfed|D>FAF GB2B|A>cec d2d2||
|:f3/2 e/2 d g2 f ed|c>ABc dcBA|f3/2 e/2 d g2 f ed|c>ABc d2d2:|

